!!!COM: Anonymous
!!!OTL: Gardez le trait de la fenestre
!!!AGN: Song; Chanson; Rondeau
!!!SCT: Ano3101
!!!SCA: Ano3101
!!!SMS: Dijon Chansonnier
!!!folio: 159v-160r
!!!SMS2: BQ16
!!!SMS3: MC
!!!SMS4: Pav
!!!voices: 3
**kern	**kern	**kern
*staff3	*staff2	*staff1
*Ivox	*Ivox	*Ivox
*I"Contra	*I"Tenor	*I"Discantus
*I'C	*I'T	*I'D
*clefGv2	*clefGv2	*clefG2
*k[]	*k[]	*k[]
*M3/1	*M3/1	*M3/1
*met(O)	*met(O)	*met(O)
=1-	=1-	=1-
!!LO:TX:X=-40:Z=8:t=Sig. cong. are editorial
2.F	0.r	0.r
4E	.	.
2D	.	.
1C	.	.
2C	.	.
=2	=2	=2
2.F	0.r	0.r
4G	.	.
2A	.	.
2B	.	.
1c	.	.
=3	=3	=3
2F	2.F	0.r
2c	.	.
.	4E	.
4B	2D	.
4A	.	.
2.c	1C	.
4B	.	.
2G	2C	.
=4	=4	=4
2A	2.F	0.r
2.F	.	.
.	4G	.
.	2A	.
4E	.	.
2D	2B	.
1C	1c	.
=5	=5	=5
1c	[0.F	2.f
.	.	4e
1A	.	2d
.	.	1c
2.f	.	.
.	.	2c
4e	.	.
=6	=6	=6
4d	0.F]	2.f
4c	.	.
1c	.	.
.	.	4g
.	.	2a
.	.	.
2d	.	2b
4c	.	1cc
2A	.	.
4B	.	.
=7	=7	=7
2A	1F	2f
2F	.	2.cc
1C	1.c	.
.	.	4b
.	.	2a
1r	.	2.g
.	2B-i	.
.	.	4f
=8	=8	=8
2r	1A	1f
2c	.	.
2d	1G	2g
2e	.	2b-i
4f	1F	2.a
4e	.	.
2c	.	.
.	.	4g
=9	=9	=9
1r	2G	4g
.	.	4f
.	2B-i	2d
1F	2A	2c
.	2F	1f
1C	1G	.
.	.	2e
=10	=10	=10
1c	0F	0.f
2c	.	.
2c	.	.
2.A	1r	.
4F	.	.
=11	=11	=11
0F	1c	1r
.	2.A	1r
.	4F	.
2.A	1F	2cc
.	.	2cc
4B	.	.
=12	=12	=12
1c	0F	2.a
.	.	4f
2.A	.	0f
4F	.	.
2F	2A	.
4E	2B	.
4D	.	.
=13	=13	=13
1C	0c	2e
.	.	2f
1r	.	2g
.	.	2a
1G	1d	2.b
.	.	4a
=14	=14	=14
2A	2c	2.cc
1F	1f	.
.	.	4b
.	.	4a
.	.	4g
2C	2e	2g
2.D	1d	2f
.	.	2b-i
4E	.	.
=15	=15	=15
1.F	2.c	4a
.	.	2a
.	4B	4g
.	2A	2a
2G	2G	2b
2A	2F	4cc
.	.	2a
2B	4E	.
.	4D	8gL
.	.	8fJ
=16	=16	=16
2.c	0.CN	0.eN
4B	.	.
0GN	.	.
=17	=17	=17
0.r	0.r	0.r
=18	=18	=18
2F	1A	1f
2A	.	.
2G	2B-i	2g
2F	1c	1a
2c	.	.
[2d	2B-i	2g
=19	=19	=19
2d]	1G	1b-i
2e	.	.
2f	1F	1a
1c	.	.
.	2.A	2.f
[2F	.	.
.	4B-i	4g
=20	=20	=20
2F]	2c	2a
2D	2d	2b-i
1F	2c	2a
.	4B-i	4g
.	4A	4f
[1C	2G	1e
.	4A	.
.	[4c	.
=21	=21	=21
1C]	4c]	1e
.	4B-i	.
.	2G	.
2.c	2A	2.f
.	1F	.
4B	.	4e
2A	.	4d
.	.	4c
2G	2E	2c
=22	=22	=22
2A	2F	2d
2B	2G	2.e
2c	2C	.
.	.	4c
2G	2E	1c
4F	1D	.
2F	.	.
.	.	2B
4E	.	.
=23	=23	=23
0G	0C	1c
.	.	1r
[1A	1r	1c
=24	=24	=24
1A]	1F	2d
.	.	1c
1F	1A	.
.	.	1f
1C	1G	.
.	.	2e
=25	=25	=25
0c	0F	1f
.	.	4a
.	.	4b
.	.	2.cc
[1F	4A	.
.	4B	4b
.	[2c	4a
.	.	4g
=26	=26	=26
1F]	4c]	2a
.	4B	.
.	4A	2.f
.	4G	.
2r	2A	.
.	.	4e
2.A	2.F	2d
.	.	2c
4c	4E	.
4B	2D	2f
4A	.	.
=27	=27	=27
2c	2C	2g
2A	2F	4a
.	.	4cc
2G	2G	4b
.	.	4a
2F	4A	2cc
.	4c	.
2r	4B	2dd
.	4A	.
[2F	2c	4cc
.	.	[4a
=28	=28	=28
1.F]	2d	4a]
.	.	4b
.	4c	2cc
.	2A	.
.	.	2f
.	4B	.
1A	2c	2e
.	2F	2c
2G	2E	2r
=29	=29	=29
2A	2C	2cc
1F	2.c	4a
.	.	4b-i
.	.	4a
.	4B	8gL
.	.	8fJ
2F	2A	1f
1C	1G	.
.	.	2e
=30	=30	=30
0.cl	0.Fl	0.fl
==	==	==
*-	*-	*-
!!!RDF**kern: l=long note in original notation
!!!RDF**kern: i=editorial accidental
!!!ENC: Chris Gage 10-11-2016
!!!END: 2018/09/27/
!!!EED: Jesse Rodin
!!!EEV: 2018/11/29/
!!!ONB: Translated from MusicXML and edited on 2018/11/29/ by Craig Sapp
!!muse2ps: C^@{COM}\n@{SMS}, @{folio}; also @{SMS2}, @{SMS3}, @{SMS4}^v105,105,150Q16c115
